X:383
T:Carlton House. RH.383
R:Country Dance
S:Rev.R.Harrison’s MS,c1815,Cumbria
O:England
A:Temple Sowerby,Cumbria
Z:vmp.Simon Wilson. Review PJH, 2008.
M:2/4
L:1/8
Q:1/4=105
K:D
a>f a/f/a/f/|dd dA|BB/d/ cc/e/|d/c/d/e/ dA|\
a>f a/f/a/f/|dd dA|BB/d/ cc/e/|d2 D2:|!
|:a>b a>d’|ba gf|a>b a>b|b/a/g/f/ fe|\
a>b a>b|ab c’d’|b/a/g/f/ a/g/f/e/|d2 d2:|

